X: 12
I: linebreak $
T: Jouyssance vous donneray
N: CHECK ROADMAP
C: Arbeau
K: D minor
M: 6/4
L: 1/8
P: A
"Dm"D2D2D2 F2"Am"EDC2 | "Dm"F2"C"GEFG "F"A4A2 | "F"AGFGAB c2cBA2 | "Bb"BAGF"C"GE "F"F4F2 | "F"A2G2A2 "Bb"D4D2 | "C"EFGFED C4C2 | 
"F"cBAGFE F2"Gm"BAGF | "A"ED^CDDC "D"D4D2 :: 
P: B
"Dm"d2d2d2 "Am"c=Bcde2 | "Dm"dc"E"=BA=B^G "A"A4A2 | "Am"AGA=Bcd e2"D"dc=BA | "E"=BA^GA=BG "A"A4A2 :: 
P: C
"Dm"DCDEDE F2"Am"EDC2 | "Dm"FEDEFG "F"A4A2 | "F"AGFGAB cBcdcA | "Bb"BA"C"GFGE "F"F4F2 | "F"A2G2A2 "Bb"D4D2 | "C"EFGFED C4C2 | 
"F"cBAGFE F2"Gm"BAGF | "A"ED^CDDC "D"D4D2 :| 

